-- noise
d8
  $ spin 3
  $ loopAt 8
  $ s "gb"
    # gain 0.8
    -- # silence

hush

d9 --cherilyn, donna, ann
-- $ degradeBy 0.3
  $ euclid 3 8
  $ rarely (slow 2)
  $ randslice 16
  $ s "donna"
  # legato 1
  # room 0.2 # size 0.6
  # gain (range 0.4 0.8 sine)
  # pan rand
  -- silence
hush

xfade 9
  -- $ degradeBy 0.3
    $ euclid 5 8
    $ rarely (slow 2)
    $ randslice 16
    $ s "donna"
    # legato 1
    # room 0.2 # size 0.6
    # pan rand
    -- # silence
