once $ s "poea" # gain 1.2--train still settled

d9
-- $ degradeBy 0.3
  $ euclid 3 8
  $ rarely (slow 2)
  $ randslice 16
  $ s "donna"
  # legato 1
  # room 0.2 # size 0.6
  # gain (range 0.4 0.8 sine)
  # pan rand
