
d6
$ often (slow "<8 16 32>")
$ struct "t(3,8)"
$ segment 16
$ n (scale "phrygian" "-12 .. 12" |+ "[a3 |a4 |a5 |a6]")
    # s "gabor"
    # legato 1
    # gain (range 0.4 0.8 sine)
    # pan rand

hush

scaleList
